packages/swarm-icons/src/icons/line/Share.svg

<svg xmlns="http://www.w3.org/2000/svg" width="24" height="24" viewBox="0 0 24 24">
  <path fill="#757575" d="M18,11.5 C17.7238576,11.5 17.5,11.2761424 17.5,11 C17.5,10.7238576 17.7238576,10.5 18,10.5 L19,10.5 C20.3807119,10.5 21.5,11.6192881 21.5,13 L21.5,20 C21.5,21.3807119 20.3807119,22.5 19,22.5 L5,22.5 C3.61928813,22.5 2.5,21.3807119 2.5,20 L2.5,13 C2.5,11.6192881 3.61928813,10.5 5,10.5 L6,10.5 C6.27614237,10.5 6.5,10.7238576 6.5,11 C6.5,11.2761424 6.27614237,11.5 6,11.5 L5,11.5 C4.17157288,11.5 3.5,12.1715729 3.5,13 L3.5,20 C3.5,20.8284271 4.17157288,21.5 5,21.5 L19,21.5 C19.8284271,21.5 20.5,20.8284271 20.5,20 L20.5,13 C20.5,12.1715729 19.8284271,11.5 19,11.5 L18,11.5 Z M11.5,3.11342192 L7.83218192,6.37370466 C7.62579054,6.55716367 7.30975435,6.5385733 7.12629534,6.33218192 C6.94283633,6.12579054 6.9614267,5.80975435 7.16781808,5.62629534 L11.6662179,1.6277177 C11.7547308,1.5483053 11.8717243,1.5 12,1.5 C12.1282757,1.5 12.2452692,1.5483053 12.3337821,1.6277177 L16.8321819,5.62629534 C17.0385733,5.80975435 17.0571637,6.12579054 16.8737047,6.33218192 C16.6902457,6.5385733 16.3742095,6.55716367 16.1678181,6.37370466 L12.5,3.11342192 L12.5,14 C12.5,14.2761424 12.2761424,14.5 12,14.5 C11.7238576,14.5 11.5,14.2761424 11.5,14 L11.5,3.11342192 Z"/>
</svg>

<svg xmlns="http://www.w3.org/2000/svg" width="24" height="24"><path fill="#757575" d="M18 11.5a.5.5 0 110-1h1a2.5 2.5 0 012.5 2.5v7a2.5 2.5 0 01-2.5 2.5H5A2.5 2.5 0 012.5 20v-7A2.5 2.5 0 015 10.5h1a.5.5 0 110 1H5A1.5 1.5 0 003.5 13v7A1.5 1.5 0 005 21.5h14a1.5 1.5 0 001.5-1.5v-7a1.5 1.5 0 00-1.5-1.5h-1zm-6.5-8.387l-3.668 3.26a.5.5 0 01-.664-.747l4.498-3.998a.498.498 0 01.668 0l4.498 3.998a.5.5 0 11-.664.748L12.5 3.114V14a.5.5 0 11-1 0V3.113z"/></svg>
